svg/food/chicken_fill.svg

<?xml version="1.0" encoding="UTF-8"?>
<svg width="24px" height="24px" viewBox="0 0 24 24" version="1.1" xmlns="http://www.w3.org/2000/svg" xmlns:xlink="http://www.w3.org/1999/xlink">
    <title>chicken_fill</title>
    <g id="Icon" stroke="none" stroke-width="1" fill="none" fill-rule="evenodd">
        <g id="Food" transform="translate(-624.000000, -48.000000)" fill-rule="nonzero">
            <g id="chicken_fill" transform="translate(624.000000, 48.000000)">
                <path d="M24,0 L24,24 L0,24 L0,0 L24,0 Z M12.5935,23.2578 L12.5819,23.2595 L12.5109,23.295 L12.4919,23.2987 L12.4767,23.295 L12.4057,23.2595 C12.3958,23.2564 12.387,23.259 12.3821,23.2649 L12.378,23.2758 L12.3609,23.7031 L12.3659,23.7235 L12.3769,23.7357 L12.4805,23.8097 L12.4953,23.8136 L12.5071,23.8097 L12.6107,23.7357 L12.6233,23.7197 L12.6267,23.7031 L12.6096,23.2758 C12.6076,23.2657 12.601,23.2593 12.5935,23.2578 Z M12.8584,23.1453 L12.8445,23.1473 L12.6598,23.2397 L12.6499,23.2499 L12.6472,23.2611 L12.6651,23.6906 L12.6699,23.7034 L12.6784,23.7105 L12.8793,23.8032 C12.8914,23.8069 12.9022,23.803 12.9078,23.7952 L12.9118,23.7812 L12.8777,23.1665 C12.8753,23.1546 12.8674,23.147 12.8584,23.1453 Z M12.143,23.1473 C12.1332,23.1424 12.1222,23.1453 12.1156,23.1526 L12.1099,23.1665 L12.0758,23.7812 C12.0751,23.7927 12.0828,23.8019 12.0926,23.8046 L12.1083,23.8032 L12.3092,23.7105 L12.3186,23.7024 L12.3225,23.6906 L12.3404,23.2611 L12.3372,23.2485 L12.3278,23.2397 L12.143,23.1473 Z" id="MingCute"></path>
                <path d="M20.1318,5.989745 C19.7455,5.60345 19.2795,5.3446 18.7872,5.21306 C18.6557,4.72074 18.3968,4.25472 18.0105,3.86843 C16.8389,2.69685 14.9395,2.69685 13.7679,3.86843 C12.8442,4.79206 12.6488,6.16812 13.1815,7.28325 L12.3727,8.09207 C12.3613,8.09057 12.35,8.08911 12.3386,8.08768 C11.4118,7.97084 10.3827,8.04012 9.37032,8.24016 C7.36915,8.63558 5.22102,9.58686 3.86832,10.9396 C2.50193,12.3059 1.9377,13.918 2.082,15.5313 C2.22362,17.1144 3.03618,18.5927 4.22187,19.7784 C5.40757,20.9641 6.88583,21.7766 8.46901,21.9183 C10.0823,22.0626 11.6943,21.4983 13.0607,20.1319 C14.4134,18.7792 15.3647,16.6311 15.7601,14.6299 C15.9601,13.6176 16.0294,12.5884 15.9126,11.6616 C15.9112,11.6503 15.9097,11.6389 15.9082,11.6276 L16.717,10.8188 C17.8321,11.3515 19.2082,11.156 20.1318,10.2324 C21.3034,9.06081 21.3034,7.16132 20.1318,5.989745 Z" id="路径" fill="#09244B"></path>
            </g>
        </g>
    </g>
</svg>

<svg xmlns="http://www.w3.org/2000/svg" width="24" height="24"><g fill="none" fill-rule="nonzero"><path d="M24 0v24H0V0h24ZM12.594 23.258l-.012.002-.071.035-.02.004-.014-.004-.071-.036c-.01-.003-.019 0-.024.006l-.004.01-.017.428.005.02.01.013.104.074.015.004.012-.004.104-.074.012-.016.004-.017-.017-.427c-.002-.01-.009-.017-.016-.018Zm.264-.113-.014.002-.184.093-.01.01-.003.011.018.43.005.012.008.008.201.092c.012.004.023 0 .029-.008l.004-.014-.034-.614c-.003-.012-.01-.02-.02-.022Zm-.715.002a.023.023 0 0 0-.027.006l-.006.014-.034.614c0 .012.007.02.017.024l.015-.002.201-.093.01-.008.003-.011.018-.43-.003-.012-.01-.01-.184-.092Z"/><path fill="#09244B" d="M20.132 5.99a2.988 2.988 0 0 0-1.345-.777 3 3 0 1 0-5.606 2.07l-.808.81a5.675 5.675 0 0 0-.034-.005c-.927-.117-1.956-.048-2.969.152-2 .396-4.149 1.347-5.502 2.7-1.366 1.366-1.93 2.978-1.786 4.591.142 1.583.954 3.062 2.14 4.247 1.186 1.186 2.664 1.999 4.247 2.14 1.613.145 3.225-.42 4.592-1.786 1.352-1.353 2.304-3.5 2.7-5.502.2-1.012.268-2.042.152-2.968a3.95 3.95 0 0 0-.005-.034l.809-.81a3.001 3.001 0 0 0 3.415-4.828Z"/></g></svg>
